images/logo.svg

<svg width="137" height="56" viewBox="0 0 137 56" fill="none" xmlns="http://www.w3.org/2000/svg">
<path d="M52.7904 37.5653C52.1339 37.4899 51.4697 37.6047 50.8761 37.8962C50.8761 37.8962 48.2048 40.1409 34.9912 37.5563C25.2769 35.6514 20.2283 35.8482 20.2283 35.8482C20.2283 35.8482 21.8577 24.6691 21.4125 21.539C21.3921 21.3081 21.2832 21.0942 21.1088 20.9424C20.9343 20.7905 20.7081 20.7127 20.4776 20.7252C19.507 20.7252 18.9194 21.1008 18.9194 21.6195C19.0026 23.7327 18.9282 25.8492 18.6968 27.9513C18.2934 29.0619 17.5362 30.0076 16.5428 30.6415C15.5493 31.2754 14.3753 31.5621 13.203 31.4571C8.97354 31.1619 8.08313 28.1033 7.70916 26.0196C7.33519 23.9358 7.1215 18.1137 8.2345 15.7348C8.2345 15.7348 14.6098 15.9584 18.6166 12.5242C22.6235 9.09001 22.3742 6.12085 20.4776 4.85091C18.581 3.58097 14.1379 3.80456 10.7276 6.93469C8.76961 8.65256 7.22335 10.7926 6.20438 13.195C6.20438 13.195 1.19139 12.1218 2.34002 6.86314C3.55987 1.37199 11.0304 2.01591 11.0304 2.01591C12.5886 2.31998 12.6598 2.46307 13.1763 1.94436C13.6927 1.42565 14.0667 0.0841676 11.618 0.00367843C9.16943 -0.0768107 1.82358 1.13947 0.416738 6.04037C-1.08805 11.2543 1.69002 14.9836 5.42082 15.5649C5.42082 15.5649 3.38179 24.5976 5.90164 29.0692C6.60015 30.4823 7.70101 31.655 9.06442 32.4385C10.4278 33.2219 11.9923 33.5807 13.5591 33.4693C15.0283 33.4693 17.6283 32.6465 18.3673 31.4571C18.3673 31.4571 18.0201 34.6587 17.7262 35.8214C17.7262 35.8214 11.5468 35.7409 9.61463 36.7157C6.32903 38.4596 7.01465 42.5467 8.27902 43.9955C9.34751 45.2296 12.5619 45.9004 14.8858 44.8004C16.2159 44.1575 17.3648 43.1907 18.2279 41.9879C19.091 40.7852 19.6409 39.3848 19.8276 37.9141C23.5873 37.7197 27.3537 38.1304 30.9844 39.1304C36.4782 40.7759 44.1268 42.3141 46.424 42.3141C48.7213 42.3141 53.5473 41.6523 53.8411 39.7295C54.0014 38.4596 53.5295 37.7978 52.7904 37.5653ZM14.1201 7.67698C14.1201 7.67698 17.0406 5.44117 18.4386 6.83631C18.7524 7.17634 18.9334 7.61882 18.9481 8.08226C18.9628 8.5457 18.8103 8.99888 18.5187 9.35831C17.931 10.1274 16.3817 12.56 9.02697 13.7673C9.02697 13.7673 11.342 9.68921 14.1201 7.67698ZM14.3605 42.4751C14.3605 42.4751 10.327 44.6841 9.90847 41.6881C9.74677 41.0634 9.80359 40.4018 10.0694 39.8141C10.3352 39.2265 10.7939 38.7483 11.3687 38.4596C12.0722 38.1108 13.0338 37.6726 17.2276 37.8246C17.1806 38.7802 16.8929 39.7081 16.3915 40.5214C15.89 41.3348 15.1912 42.007 14.3605 42.4751Z" fill="#2D3440"/>
<path d="M65.5143 21.226C65.5143 23.2472 65.5143 25.2594 65.5143 27.2806C65.5143 27.2806 65.5143 27.3521 65.5143 27.3879C65.4439 28.193 65.1812 28.9691 64.7486 29.6505C64.4751 30.1454 64.1198 30.59 63.6979 30.9652C63.226 31.3766 62.9143 30.4554 62.7363 30.0709C61.4986 27.4684 62.0952 23.9805 62.576 21.2528C62.7986 19.9471 60.163 20.2869 59.9582 21.4496C59.4779 23.7746 59.3132 26.1542 59.4685 28.5237C59.2351 28.5421 59.0082 28.6098 58.8026 28.7223C58.597 28.8348 58.4173 28.9896 58.2753 29.1765C57.8212 30.1513 56.4945 33.3888 54.8651 32.092C53.6897 31.1977 53.5651 28.7473 53.4404 27.3789C53.2986 25.4822 53.5471 23.5765 54.1706 21.7805C54.1171 21.9325 55.1856 19.2495 55.6575 20.2512C55.7851 20.7285 55.8025 21.2288 55.7084 21.7139C55.6143 22.199 55.4111 22.6561 55.1144 23.0504C53.7165 24.1057 55.889 24.5439 56.7349 23.9C58.3377 22.6927 59.4062 18.7934 56.6726 18.3284C53.5829 17.8097 51.8288 20.9398 51.1788 23.426C50.8342 24.8538 50.6845 26.322 50.7336 27.7903C50.3062 28.5416 48.8637 30.9562 48.0179 31.3676C47.0206 31.8863 47.0384 31.1619 47.074 30.6969C47.1096 30.2318 47.5548 26.0911 47.7953 23.3008C48.006 22.1931 47.8496 21.0465 47.35 20.0365C46.9672 19.2585 43.7884 17.5145 40.9925 20.7878C39.4175 22.5146 38.4536 24.715 38.2501 27.048C38.0631 27.4237 37.8583 27.8261 37.6179 28.2643C36.2823 30.7237 34.5994 31.7611 34.0029 30.053C33.4028 28.2736 33.1754 26.3889 33.3351 24.5171C35.4098 21.2912 36.9327 17.7394 37.8405 14.0088C39.1761 8.05259 38.9268 5.09238 38.2056 4.59156C37.4843 4.09074 34.4214 2.85657 32.5782 10.1811C31.2108 15.3927 30.7321 20.7994 31.1625 26.1716C30.8775 26.7797 30.5214 27.5131 30.0673 28.3448C28.7317 30.8042 27.0577 31.8416 26.4522 30.1335C25.8642 28.3516 25.6489 26.4669 25.82 24.5976C27.8948 21.3717 29.4177 17.8199 30.3255 14.0893C31.7056 8.05259 31.4296 5.09238 30.7084 4.59156C29.9871 4.09074 26.9241 2.85657 25.0899 10.1811C23.2557 17.5056 22.8906 25.4919 24.6447 30.8579C24.6447 30.8579 25.6063 33.8807 27.405 33.6571C28.8919 33.4693 30.6638 32.0026 31.7056 29.266C31.8234 29.8038 31.969 30.3352 32.1419 30.8579C32.1419 30.8579 33.1035 33.8807 34.9022 33.6571C36.122 33.5051 37.5734 32.4766 38.5885 30.5985C39.2206 32.2351 40.583 33.5855 42.3371 33.2815C44.7144 32.8522 45.2042 31.5554 45.2042 31.5554C45.2042 31.5554 45.1596 33.6839 46.6822 33.6839C48.0357 33.6839 49.1131 32.888 50.1815 30.8579C50.5466 30.1692 50.7603 29.7668 50.8761 29.5343C51.1877 31.4571 51.9802 33.1652 53.5473 33.8538C56.2185 35.0165 58.5514 32.8075 59.9226 30.6253C60.0983 31.1512 60.385 31.6328 60.763 32.0371C61.1411 32.4415 61.6015 32.7592 62.113 32.9685C62.6961 33.1525 63.3182 33.1723 63.9117 33.0256C64.5052 32.8789 65.0472 32.5715 65.4787 32.1367V35.2848C64.9905 35.2587 64.5069 35.3903 64.0986 35.6604C62.7354 36.7838 61.6781 38.2361 61.0257 39.8815C60.3732 41.5268 60.1469 43.3115 60.3678 45.0687C60.4054 45.5441 60.5596 46.0027 60.8166 46.4037C61.0736 46.8047 61.4255 47.1355 61.8408 47.3666C62.2561 47.5978 62.7219 47.7221 63.1967 47.7284C63.6714 47.7347 64.1404 47.6229 64.5616 47.4029C67.3219 46.1955 67.7403 42.0369 67.9719 39.497C68.5328 33.3888 68.0965 27.0301 68.0965 20.904C68.0965 19.7772 65.5143 20.3048 65.5143 21.226ZM26.933 11.2096C27.5474 8.8396 28.1173 7.89162 28.7138 7.89162C29.3104 7.89162 29.5419 8.52659 29.1234 10.5746C28.347 14.5027 27.1251 18.3285 25.4817 21.9772C25.4817 21.9772 26.3187 13.5885 26.933 11.2096ZM34.4303 11.2096C35.0446 8.8396 35.6145 7.89162 36.1665 7.89162C36.7186 7.89162 37.0035 8.52659 36.585 10.5746C36.1665 12.6226 34.8042 18.2837 32.9433 21.9772C32.9433 21.9772 33.8337 13.5885 34.4303 11.2096ZM45.8809 22.3618C45.8096 22.8805 45.4713 26.1984 44.9905 27.9871C44.5097 29.7757 44.1802 30.4107 42.7377 31.0278C41.2953 31.6449 40.5652 29.7578 40.5652 29.7578C39.5412 26.896 40.9124 24.3919 42.0521 22.6748C43.1919 20.9577 44.3405 20.8057 44.9994 20.8861C45.1538 20.9248 45.299 20.9937 45.4269 21.0888C45.5548 21.1839 45.6627 21.3034 45.7446 21.4405C45.8265 21.5775 45.8806 21.7294 45.904 21.8875C45.9274 22.0456 45.9195 22.2067 45.8809 22.3618ZM65.4431 38.4596C65.4968 40.8639 65.0162 43.25 64.0363 45.4443C63.413 45.5695 63.1459 45.337 62.9322 44.3353C62.7852 43.3721 62.7852 42.392 62.9322 41.4288C63.2234 39.6594 64.0946 38.0384 65.4075 36.823C65.452 37.3864 65.452 37.932 65.4431 38.4596Z" fill="#2D3440"/>
<path d="M82.1827 18.6951C81.0246 18.1819 79.9791 17.4436 79.1065 16.5226C78.2339 15.6016 77.5515 14.5163 77.0985 13.3291C75.9588 9.91279 79.6985 7.3908 82.6814 7.54283C85.6642 7.69487 87.2581 10.7803 87.1334 13.5437C87.08 14.5186 86.4656 16.7186 85.2635 15.5739C84.4686 14.6676 83.982 13.5304 83.8745 12.3275C83.6964 11.2453 81.1143 11.8892 81.2923 13.025C81.8088 16.2983 85.317 19.9024 88.3265 16.4771C88.9423 15.7016 89.3753 14.7962 89.5932 13.8287C89.8111 12.8612 89.8081 11.8568 89.5845 10.8906C89.361 9.92442 88.9226 9.02159 88.3023 8.24977C87.6819 7.47795 86.8957 6.85714 86.0026 6.43387C83.9878 5.64584 81.7597 5.60263 79.7161 6.31195C77.6725 7.02127 75.9463 8.43695 74.8458 10.3063C72.415 14.6438 77.2944 18.8829 80.7492 20.43C86.2964 23.4081 86.5012 32.9953 79.1286 33.0579C77.6141 33.023 76.1463 32.5236 74.9224 31.6268C73.6985 30.73 72.7769 29.4787 72.2814 28.0407C71.7739 26.5383 72.0321 21.2886 74.0622 20.8861C75.6739 20.5731 75.2376 19.0975 73.6616 19.3747C70.3581 20.0187 69.1383 24.3025 69.4588 27.2984C69.9753 32.0741 74.4273 34.7482 78.9239 34.7124C80.9132 34.7698 82.8598 34.126 84.426 32.8927C85.9922 31.6593 87.0792 29.9143 87.4985 27.9602C87.8293 26.0354 87.4788 24.055 86.5079 22.3627C85.5369 20.6703 84.0067 19.3727 82.1827 18.6951Z" fill="#2D3440"/>
<path d="M98.7265 32.9059C96.1888 31.5107 97.6402 26.1358 98.0231 24.0699C98.2724 22.7374 99.4032 20.6804 97.5868 20.2243C95.4587 19.7056 92.9299 21.7358 91.1046 23.6764C91.1031 21.4375 91.2668 19.2015 91.5943 16.9869C94.41 15.5759 96.6644 13.2453 97.9874 10.3778C99.145 8.0526 99.7148 3.22324 95.797 4.63628C92.2354 5.88833 91.0156 10.0022 89.9026 13.3023C89.482 14.5787 89.1576 15.8852 88.932 17.2105C88.5769 17.3602 88.2143 17.4916 87.8457 17.604C86.3677 18.069 86.5635 18.865 88.0594 18.3999L88.7806 18.1674C88.0683 23.1846 88.5491 28.4432 89.0033 33.3709C89.0033 33.8538 91.6745 33.3709 91.5765 32.6733C91.3806 30.4733 91.2115 28.2733 91.1402 26.0911C91.3552 26.028 91.5491 25.9074 91.7012 25.7423C92.5205 24.7092 93.4391 23.7597 94.4436 22.9073C94.7108 22.6658 94.9868 22.4423 95.2628 22.2276L95.6724 21.9236C96.269 21.4496 96.3847 21.4406 96.0107 21.9236C95.8712 22.7764 95.6869 23.6212 95.4587 24.4545C94.969 27.1375 93.5621 32.405 96.6518 34.0953C97.3196 34.4352 99.7237 33.4335 98.7265 32.9059ZM92.9477 11.3437C93.2238 10.5478 93.5888 9.76075 93.9272 8.99164C94.3457 8.02577 95.4676 4.72571 96.2779 6.30866C96.9279 7.56966 95.9039 9.63555 95.4498 10.8429C94.7348 12.7305 93.4994 14.3746 91.8882 15.5828C92.148 14.1479 92.5019 12.7317 92.9477 11.3437Z" fill="#2D3440"/>
<path d="M108.298 26.6366C108.298 23.6943 107.969 19.9203 104.47 19.6073C100.632 19.2585 99.1272 23.2919 99.0737 26.3057C99.0682 26.4124 99.095 26.5183 99.1507 26.6093C99.2063 26.7003 99.2882 26.7722 99.3854 26.8155C99.3854 29.6326 100.062 33.3083 103.401 33.2457C107.123 33.192 108.298 29.9278 108.298 26.6366ZM103.846 31.5375C101.674 30.6432 101.87 26.8781 102.012 25.0626C102.025 24.9714 102.012 24.8783 101.974 24.7943C101.936 24.7103 101.875 24.6389 101.798 24.5886C102.066 22.8 102.76 20.117 104.345 21.4496C105.609 22.5406 105.636 25.161 105.698 26.6724C105.752 27.7277 105.618 32.1993 103.855 31.5375H103.846Z" fill="#2D3440"/>
<path d="M136.346 42.7792C135.349 40.2035 133.158 39.2019 130.745 39.0946C130.476 38.4407 130.139 37.8172 129.739 37.2344C126.258 32.0563 117.995 32.7628 112.394 35.4457C112.394 34.6319 112.314 33.8181 112.278 33.0042C113.393 33.0946 114.511 32.8953 115.527 32.4253C116.542 31.9554 117.42 31.2308 118.075 30.3213C119.562 28.1838 119.348 24.3919 118.761 21.9951C118.209 19.7414 116.018 20.1439 114.371 20.8951C113.765 21.1834 113.206 21.5634 112.715 22.0219C112.715 21.4227 112.813 20.8146 112.857 20.2333C112.955 18.856 110.328 19.2048 110.239 20.4211C109.83 25.957 109.972 31.4749 109.848 37.0019C108.268 38.3058 107.013 39.9623 106.182 41.8395C105.352 43.7166 104.97 45.7625 105.066 47.8142C105.066 49.8444 106.785 51.3915 108.628 49.9427C111.201 47.9573 111.985 44.0134 112.341 40.9995C112.487 39.6544 112.534 38.3003 112.483 36.9482C114.491 35.6258 116.836 34.9138 119.237 34.898C121.638 34.8821 123.993 35.563 126.017 36.8588C126.887 37.4754 127.583 38.3071 128.039 39.2734C126.615 39.5292 125.232 39.9743 123.925 40.597C122.402 41.3304 120.141 43.0654 120.248 45.0061C120.23 45.6202 120.423 46.2216 120.794 46.7099C121.166 47.1983 121.692 47.5439 122.287 47.689C122.368 47.7304 122.455 47.7576 122.545 47.7695C128.012 48.6638 132.081 45.4174 131.298 40.8475C133.969 42.3052 134.957 45.6857 134.013 48.5923C131.885 55.1209 123.693 56.5786 118.921 52.2143C118.404 51.7493 116.081 52.733 116.49 53.1086C123.382 59.4315 140.549 53.5826 136.346 42.7792ZM109.687 41.1962C109.612 42.7754 109.269 44.3299 108.672 45.7931C108.45 46.2849 108.209 46.7589 107.951 47.224C107.951 47.224 107.72 47.2776 107.675 46.5801C107.671 44.0745 108.395 41.6223 109.759 39.5239C109.741 40.0783 109.723 40.6418 109.687 41.1962ZM112.474 25.2236C112.526 25.1796 112.571 25.1284 112.608 25.0716C113.086 24.2618 113.654 23.5088 114.3 22.8268C114.766 22.2947 115.309 21.8364 115.911 21.4675C116.196 21.6105 116.49 22.3618 116.597 23.3724C116.873 25.8586 116.989 32.405 113.089 31.788C112.785 31.7743 112.481 31.8262 112.198 31.94C112.189 29.6684 112.314 27.4505 112.474 25.2236ZM124.121 46.4549H124.067C122.572 46.0971 122.732 44.6662 122.928 43.7003C123.364 41.4377 126.106 40.2214 128.368 40.1231C129.517 43.3426 128.635 47.1972 124.121 46.4549Z" fill="#2D3440"/>
</svg>

<svg width="137" height="56" viewBox="0 0 137 56" fill="none" xmlns="http://www.w3.org/2000/svg"><path d="M52.79 37.57a3.45 3.45 0 0 0-1.91.33s-2.68 2.24-15.89-.34c-9.71-1.9-14.76-1.71-14.76-1.71s1.63-11.18 1.18-14.31a.9.9 0 0 0-.93-.81c-.97 0-1.56.37-1.56.89.08 2.11 0 4.23-.22 6.33a5.36 5.36 0 0 1-5.5 3.5c-4.23-.29-5.12-3.35-5.5-5.43-.36-2.08-.58-7.9.53-10.29 0 0 6.38.23 10.39-3.2 4-3.44 3.75-6.4 1.86-7.68-1.9-1.27-6.34-1.05-9.75 2.08A17.33 17.33 0 0 0 6.2 13.2s-5-1.08-3.86-6.34c1.22-5.49 8.69-4.84 8.69-4.84 1.56.3 1.63.44 2.15-.08.51-.51.89-1.86-1.56-1.94C9.17-.08 1.82 1.14.42 6.04c-1.5 5.21 1.27 8.94 5 9.52 0 0-2.04 9.04.48 13.5a7.95 7.95 0 0 0 7.66 4.4c1.47 0 4.07-.81 4.8-2 0 0-.34 3.2-.63 4.36 0 0-6.18-.08-8.12.9-3.28 1.74-2.6 5.83-1.33 7.28 1.07 1.23 4.28 1.9 6.6.8a8.86 8.86 0 0 0 4.95-6.89c3.76-.19 7.52.22 11.15 1.22 5.5 1.65 13.15 3.18 15.44 3.18 2.3 0 7.13-.66 7.42-2.58.16-1.27-.31-1.93-1.05-2.16ZM14.12 7.67s2.92-2.23 4.32-.83a1.93 1.93 0 0 1 .08 2.52c-.59.77-2.14 3.2-9.5 4.4 0 0 2.32-4.07 5.1-6.08Zm.24 34.8s-4.03 2.21-4.45-.78a2.83 2.83 0 0 1 1.46-3.23c.7-.35 1.66-.79 5.86-.64a5.67 5.67 0 0 1-2.87 4.66Z" fill="#2D3440"/><path d="M65.51 21.23V27.38c-.07.81-.33 1.59-.76 2.27-.27.5-.63.94-1.05 1.32-.47.4-.79-.51-.96-.9-1.24-2.6-.64-6.09-.16-8.82.22-1.3-2.42-.96-2.62.2-.48 2.32-.65 4.7-.5 7.07a1.66 1.66 0 0 0-1.18.66c-.46.97-1.79 4.2-3.41 2.91-1.18-.9-1.3-3.34-1.43-4.71-.14-1.9.1-3.8.73-5.6-.05.15 1.02-2.53 1.49-1.53a3.26 3.26 0 0 1-.55 2.8c-1.4 1.06.78 1.5 1.62.85 1.6-1.2 2.68-5.1-.06-5.57-3.09-.52-4.84 2.61-5.5 5.1-.34 1.42-.49 2.9-.44 4.36-.42.75-1.87 3.17-2.71 3.58-1 .52-.98-.2-.95-.67.04-.47.48-4.6.73-7.4.2-1.1.05-2.25-.45-3.26-.38-.78-3.56-2.53-6.36.75a10.66 10.66 0 0 0-2.74 6.26l-.63 1.21c-1.34 2.46-3.02 3.5-3.62 1.8-.6-1.79-.82-3.67-.66-5.54A34.51 34.51 0 0 0 37.84 14c1.34-5.96 1.09-8.92.37-9.42-.73-.5-3.79-1.73-5.63 5.6a47.93 47.93 0 0 0-1.42 15.98c-.28.61-.64 1.34-1.1 2.17-1.33 2.46-3 3.5-3.6 1.8-.6-1.79-.81-3.67-.64-5.54a34.51 34.51 0 0 0 4.5-10.51c1.39-6.04 1.11-9 .39-9.5-.72-.5-3.79-1.73-5.62 5.6-1.83 7.32-2.2 15.3-.45 20.67 0 0 .97 3.02 2.77 2.8 1.48-.2 3.25-1.66 4.3-4.4.11.54.26 1.08.43 1.6 0 0 .96 3.02 2.76 2.8 1.22-.15 2.67-1.18 3.69-3.06.63 1.64 2 2.99 3.75 2.68 2.37-.43 2.86-1.72 2.86-1.72s-.04 2.12 1.48 2.12c1.36 0 2.43-.8 3.5-2.82l.7-1.33c.3 1.93 1.1 3.64 2.67 4.32 2.67 1.17 5-1.04 6.37-3.22a3.86 3.86 0 0 0 2.2 2.34 3.32 3.32 0 0 0 3.36-.83v3.14c-.49-.02-.97.11-1.38.38a10.47 10.47 0 0 0-3.73 9.4 2.9 2.9 0 0 0 2.83 2.67c.47 0 .94-.1 1.36-.33 2.76-1.2 3.18-5.36 3.41-7.9.56-6.11.13-12.47.13-18.6 0-1.12-2.59-.6-2.59.33ZM26.93 11.2c.62-2.37 1.19-3.32 1.78-3.32.6 0 .83.64.41 2.68a52.6 52.6 0 0 1-3.64 11.4s.84-8.38 1.45-10.76Zm7.5 0c.61-2.37 1.18-3.32 1.74-3.32.55 0 .83.64.41 2.68-.41 2.05-1.78 7.71-3.64 11.4 0 0 .9-8.38 1.49-10.76Zm11.45 11.15c-.07.52-.4 3.84-.89 5.63-.48 1.79-.81 2.42-2.25 3.04-1.44.61-2.17-1.27-2.17-1.27-1.03-2.86.34-5.37 1.48-7.09 1.14-1.71 2.3-1.86 2.95-1.78a1.2 1.2 0 0 1 .88 1.47Zm19.56 16.1c.06 2.4-.42 4.79-1.4 6.98-.63.13-.9-.1-1.1-1.1a9.63 9.63 0 0 1 0-2.91 8.06 8.06 0 0 1 2.47-4.6c.04.56.04 1.1.03 1.63ZM82.18 18.7a9.59 9.59 0 0 1-5.08-5.37c-1.14-3.42 2.6-5.94 5.58-5.79 2.98.15 4.58 3.24 4.45 6-.05.98-.66 3.18-1.87 2.03a5.7 5.7 0 0 1-1.39-3.24c-.17-1.08-2.76-.44-2.58.7.52 3.27 4.03 6.87 7.04 3.45A6.59 6.59 0 0 0 86 6.43a9.08 9.08 0 0 0-11.15 3.88c-2.43 4.33 2.44 8.57 5.9 10.12C86.3 23.41 86.5 33 79.13 33.06a7.4 7.4 0 0 1-6.85-5.02c-.5-1.5-.25-6.75 1.78-7.15 1.61-.32 1.18-1.8-.4-1.52-3.3.65-4.52 4.93-4.2 7.93.52 4.77 4.97 7.45 9.46 7.41a8.5 8.5 0 0 0 8.58-6.75 8.4 8.4 0 0 0-5.32-9.26Z" fill="#2D3440"/><path d="M98.73 32.9c-2.54-1.39-1.09-6.76-.7-8.83.24-1.33 1.37-3.39-.44-3.85-2.13-.51-4.66 1.52-6.49 3.46 0-2.24.17-4.48.5-6.7a13.9 13.9 0 0 0 6.39-6.6c1.16-2.33 1.72-7.16-2.2-5.74-3.55 1.25-4.77 5.36-5.89 8.66a26.93 26.93 0 0 0-.97 3.91c-.35.15-.72.28-1.08.4-1.48.46-1.29 1.25.2.79l.73-.23c-.71 5.01-.23 10.27.22 15.2 0 .48 2.67 0 2.58-.7-.2-2.2-.37-4.4-.44-6.58.22-.06.4-.18.56-.35a20.1 20.1 0 0 1 3.56-3.51l.41-.3c.6-.48.71-.49.34 0-.14.85-.32 1.7-.55 2.52-.5 2.69-1.9 7.96 1.2 9.65.66.34 3.06-.67 2.07-1.2Zm-5.78-21.56c.27-.8.64-1.58.98-2.35.42-.96 1.54-4.26 2.35-2.68.65 1.26-.38 3.33-.83 4.53a10.63 10.63 0 0 1-3.56 4.74c.26-1.43.61-2.85 1.06-4.24Z" fill="#2D3440"/><path d="M108.3 26.64c0-2.95-.33-6.72-3.83-7.03-3.84-.35-5.34 3.68-5.4 6.7a.53.53 0 0 0 .32.5c0 2.82.67 6.5 4.01 6.44 3.72-.06 4.9-3.32 4.9-6.61Zm-4.45 4.9c-2.18-.9-1.98-4.66-1.84-6.48a.48.48 0 0 0-.21-.47c.27-1.79.96-4.47 2.55-3.14 1.26 1.1 1.29 3.71 1.35 5.22.05 1.06-.08 5.53-1.84 4.87h-.01ZM136.35 42.78c-1-2.58-3.2-3.58-5.6-3.69-.27-.65-.61-1.27-1.01-1.86-3.48-5.17-11.75-4.47-17.35-1.78 0-.82-.08-1.63-.11-2.45a6.49 6.49 0 0 0 5.8-2.68c1.48-2.14 1.27-5.93.68-8.32-.55-2.26-2.74-1.86-4.39-1.1-.6.28-1.16.66-1.66 1.12 0-.6.1-1.2.15-1.79.1-1.37-2.53-1.03-2.62.2-.41 5.53-.27 11.04-.4 16.57a13.2 13.2 0 0 0-4.77 10.81c0 2.03 1.72 3.58 3.56 2.13 2.57-1.98 3.36-5.93 3.71-8.94.15-1.35.2-2.7.14-4.05a12.43 12.43 0 0 1 13.54-.1 6.2 6.2 0 0 1 2.02 2.42c-1.42.26-2.8.7-4.11 1.33-1.53.73-3.79 2.47-3.68 4.4a2.69 2.69 0 0 0 2.04 2.69.8.8 0 0 0 .25.08c5.47.9 9.54-2.35 8.76-6.92 2.67 1.46 3.66 4.84 2.71 7.74-2.13 6.53-10.32 7.99-15.09 3.62-.52-.46-2.84.52-2.43.9 6.9 6.32 24.06.47 19.86-10.33Zm-26.66-1.58a13.92 13.92 0 0 1-1.02 4.6c-.22.48-.46.96-.72 1.42 0 0-.23.06-.28-.64 0-2.5.72-4.96 2.09-7.06l-.07 1.68Zm2.78-15.98a.7.7 0 0 0 .14-.15c.48-.8 1.04-1.56 1.69-2.24.47-.54 1-1 1.61-1.36.29.14.58.9.69 1.9.27 2.49.39 9.04-3.51 8.42-.3-.02-.6.04-.9.15 0-2.27.12-4.49.28-6.72Zm11.65 21.23h-.05c-1.5-.35-1.34-1.78-1.14-2.75.43-2.26 3.18-3.48 5.44-3.58 1.15 3.22.26 7.08-4.25 6.33Z" fill="#2D3440"/></svg>
